X:341
T:Sporting Nell
Z: id:dc-reel-377
M:C
L:1/8
K:D Dorian
c|ADD2 A2dc|AcGE EDEG|ADD2 A2dc|AcGE EDD:|!
B|c2ec gcec|c2ec AddB|c2ec gcec|AcGE EDDB|!
c2ec gcec|c2ec Adde|f3d e3d|c2BG Add|]!

